X:1
T:Poolside Polka
C:Cliff Stapleton
R:polka
M:2/4
K:D
AG|F2A2 d2fe|d2cB A4|BdcB A2FA|[1 GFEF GE:|[2 GFEF D2:|
EF|G2FG B2A2|F6 A2|[1 ABcd edcB|A6:|[2 ABcd edce|d6:|
FG|A2A2 AFAd|A2A2 AFAd|BAGB AGFA|[1 GFEF GE:|[2 GFEF D2:|

